X:1
T:The Duke of Gordon's Daughter
M:2/4
L:1/8
K:F
 z FF F| G2 G3/2 A/2| d2 cf| d2 FF| G2 GA| d2 cA| G2 GA| B2A-G| cA A3/2 G/2|\
 F2 Gc| d2c-f|d-dc-A| G2 z2|||
